dist/icons/svgs/calendar-solid.svg

<svg xmlns="http://www.w3.org/2000/svg" width="24" height="24" fill="currentcolor" class="icon-calendar-solid" viewBox="0 0 24 24">
  <path d="M7 3.25C7 2.58594 7.54688 2 8.25 2C8.91406 2 9.5 2.58594 9.5 3.25V4.5H14.5V3.25C14.5 2.58594 15.0469 2 15.75 2C16.4141 2 17 2.58594 17 3.25V4.5H18.875C19.8906 4.5 20.75 5.35938 20.75 6.375V8.25H3.25V6.375C3.25 5.35938 4.07031 4.5 5.125 4.5H7V3.25ZM20.75 9.5V20.125C20.75 21.1797 19.8906 22 18.875 22H5.125C4.07031 22 3.25 21.1797 3.25 20.125V9.5H20.75Z"/>
</svg>

<svg xmlns="http://www.w3.org/2000/svg" width="24" height="24" fill="currentColor" class="icon-calendar-solid" viewBox="0 0 24 24">
  <path d="M7 3.25C7 2.586 7.547 2 8.25 2c.664 0 1.25.586 1.25 1.25V4.5h5V3.25c0-.664.547-1.25 1.25-1.25.664 0 1.25.586 1.25 1.25V4.5h1.875c1.016 0 1.875.86 1.875 1.875V8.25H3.25V6.375c0-1.016.82-1.875 1.875-1.875H7zM20.75 9.5v10.625c0 1.055-.86 1.875-1.875 1.875H5.125a1.85 1.85 0 0 1-1.875-1.875V9.5z"/>
</svg>
